components/Common/Svg/svgs/streaming.svg

<svg width="40" height="40" viewBox="0 0 40 40" fill="none" xmlns="http://www.w3.org/2000/svg">
<path d="M7.00219 6.99919C7.39272 6.60867 8.02588 6.60867 8.4164 6.99919C8.80693 7.38972 8.80693 8.02288 8.4164 8.41341C6.89487 9.93494 5.68791 11.7413 4.86446 13.7293C4.04101 15.7172 3.61719 17.848 3.61719 19.9997C3.61719 22.1515 4.04101 24.2822 4.86446 26.2702C5.68791 28.2582 6.89487 30.0645 8.4164 31.5861C8.80693 31.9766 8.80693 32.6098 8.4164 33.0003C8.02588 33.3908 7.39272 33.3908 7.00219 33.0003C5.29493 31.293 3.94066 29.2662 3.0167 27.0356C2.09274 24.8049 1.61719 22.4142 1.61719 19.9997C1.61719 17.5853 2.09274 15.1945 3.0167 12.9639C3.94066 10.7333 5.29493 8.70645 7.00219 6.99919Z" fill="#161616"/>
<path d="M11.4982 28.5004C11.8887 28.8909 12.5219 28.8909 12.9124 28.5004C13.3029 28.1099 13.3029 27.4767 12.9124 27.0862C11.9818 26.1556 11.2436 25.0508 10.7399 23.8349C10.2363 22.619 9.97707 21.3158 9.97707 19.9997C9.97707 18.6837 10.2363 17.3805 10.7399 16.1646C11.2436 14.9487 11.9818 13.8439 12.9124 12.9133C13.3029 12.5228 13.3029 11.8896 12.9124 11.4991C12.5219 11.1085 11.8887 11.1085 11.4982 11.4991C10.3818 12.6154 9.49632 13.9407 8.89217 15.3992C8.28802 16.8578 7.97707 18.421 7.97707 19.9997C7.97707 21.5785 8.28802 23.1417 8.89217 24.6003C9.49632 26.0588 10.3818 27.3841 11.4982 28.5004Z" fill="#161616"/>
<path fill-rule="evenodd" clip-rule="evenodd" d="M26.4988 20.866L17.4988 26.0622C16.8322 26.4471 15.9988 25.9659 15.9988 25.1961V14.8038C15.9988 14.034 16.8322 13.5529 17.4988 13.9378L26.4988 19.134C27.1655 19.5189 27.1655 20.4811 26.4988 20.866ZM17.9988 16.5359L23.9988 20L17.9988 23.4641V16.5359Z" fill="#161616"/>
<path d="M31.5824 6.99921C31.973 6.60868 32.6061 6.60868 32.9966 6.99921C34.7039 8.70646 36.0582 10.7333 36.9821 12.9639C37.9061 15.1945 38.3816 17.5853 38.3816 19.9998C38.3816 22.4142 37.9061 24.805 36.9821 27.0356C36.0582 29.2662 34.7039 31.293 32.9966 33.0003C32.6061 33.3908 31.973 33.3908 31.5824 33.0003C31.1919 32.6098 31.1919 31.9766 31.5824 31.5861C33.104 30.0646 34.3109 28.2582 35.1344 26.2702C35.9578 24.2822 36.3816 22.1515 36.3816 19.9998C36.3816 17.848 35.9578 15.7173 35.1344 13.7293C34.3109 11.7413 33.104 9.93496 31.5824 8.41342C31.1919 8.0229 31.1919 7.38973 31.5824 6.99921Z" fill="#161616"/>
<path d="M27.5861 10.9995C27.9766 10.6089 28.6098 10.6089 29.0003 10.9995C30.1822 12.1814 31.1198 13.5845 31.7595 15.1288C32.3991 16.6731 32.7284 18.3282 32.7284 19.9998C32.7284 21.6713 32.3991 23.3264 31.7595 24.8707C31.1198 26.415 30.1822 27.8181 29.0003 29.0001C28.6098 29.3906 27.9766 29.3906 27.5861 29.0001C27.1956 28.6095 27.1956 27.9764 27.5861 27.5858C28.5823 26.5896 29.3726 25.4069 29.9117 24.1053C30.4509 22.8037 30.7284 21.4086 30.7284 19.9998C30.7284 18.5909 30.4509 17.1958 29.9117 15.8942C29.3726 14.5926 28.5823 13.4099 27.5861 12.4137C27.1956 12.0231 27.1956 11.39 27.5861 10.9995Z" fill="#161616"/>
</svg>

<svg width="40" height="40" viewBox="0 0 40 40" fill="none" xmlns="http://www.w3.org/2000/svg"><path d="M7.002 7a1 1 0 0 1 1.414 1.413 16.386 16.386 0 0 0 0 23.173A1 1 0 1 1 7.002 33a18.386 18.386 0 0 1 0-26Z" fill="#161616"/><path d="M11.498 28.5a1 1 0 0 0 1.414-1.414 10.023 10.023 0 0 1 0-14.173 1 1 0 0 0-1.414-1.414 12.02 12.02 0 0 0 0 17.001Z" fill="#161616"/><path fill-rule="evenodd" clip-rule="evenodd" d="m26.499 20.866-9 5.196a1 1 0 0 1-1.5-.866V14.804a1 1 0 0 1 1.5-.866l9 5.196a1 1 0 0 1 0 1.732Zm-8.5-4.33 6 3.464-6 3.464v-6.928Z" fill="#161616"/><path d="M31.582 7a1 1 0 0 1 1.415 0 18.384 18.384 0 0 1 0 26 1 1 0 0 1-1.415-1.414 16.385 16.385 0 0 0 0-23.173 1 1 0 0 1 0-1.414Z" fill="#161616"/><path d="M27.586 11A1 1 0 0 1 29 11a12.729 12.729 0 0 1 0 18 1 1 0 0 1-1.414-1.414 10.728 10.728 0 0 0 0-15.172 1 1 0 0 1 0-1.415Z" fill="#161616"/></svg>
